static/logos/customers/sourcegraph-logo.svg

<svg width="180" height="60" viewBox="0 0 180 60" fill="none" xmlns="http://www.w3.org/2000/svg">
<path d="M37.6494 31.7C37.6794 32.21 37.8894 32.6601 38.2794 33.0501C38.6694 33.4401 39.2394 33.6501 40.0194 33.6501C40.5894 33.6501 41.0094 33.5301 41.3094 33.2601C41.5794 33.0201 41.7294 32.7201 41.7294 32.3601C41.7294 32.0601 41.6094 31.82 41.3994 31.58C41.1894 31.37 40.8294 31.19 40.3194 31.1L38.6094 30.71C37.3494 30.44 36.4494 29.96 35.8494 29.27C35.2794 28.58 34.9794 27.77 34.9794 26.87C34.9794 26.3 35.0994 25.76 35.3394 25.22C35.5794 24.71 35.9094 24.26 36.3594 23.87C36.7794 23.51 37.2894 23.18 37.8894 22.97C38.4594 22.73 39.1194 22.64 39.8094 22.64C40.7094 22.64 41.4894 22.76 42.1194 23.03C42.7494 23.27 43.2594 23.6 43.6494 23.99C44.0394 24.38 44.3394 24.77 44.5194 25.22C44.6994 25.64 44.8194 26.03 44.8494 26.39L41.9394 27.05C41.9094 26.87 41.8494 26.66 41.7594 26.45C41.6694 26.24 41.5494 26.06 41.3694 25.88C41.1894 25.7 40.9794 25.58 40.7394 25.46C40.4994 25.37 40.1694 25.31 39.8094 25.31C39.3594 25.31 38.9694 25.43 38.6394 25.67C38.3094 25.91 38.1594 26.21 38.1594 26.6C38.1594 26.9 38.2794 27.17 38.4894 27.35C38.6994 27.53 38.9994 27.68 39.3294 27.74L41.1594 28.13C42.4194 28.4 43.3794 28.88 44.0394 29.6C44.6694 30.32 44.9994 31.13 44.9994 32.09C44.9994 32.6 44.9094 33.1401 44.6994 33.6201C44.4894 34.1301 44.1894 34.5801 43.7694 34.9701C43.3494 35.3601 42.8394 35.6901 42.2094 35.9301C41.5794 36.1701 40.8594 36.2901 40.0194 36.2901C39.0294 36.2901 38.2194 36.1401 37.5594 35.8701C36.8994 35.6001 36.3594 35.2401 35.9394 34.8501C35.5194 34.4601 35.2194 34.0101 35.0094 33.5601C34.7994 33.1101 34.6794 32.6901 34.6494 32.3301L37.6494 31.7ZM53.0395 22.67C53.9995 22.67 54.8995 22.85 55.7095 23.18C56.5495 23.51 57.2395 23.99 57.8695 24.59C58.4695 25.19 58.9495 25.91 59.2795 26.75C59.6095 27.59 59.7895 28.49 59.7895 29.51C59.7895 30.5 59.6095 31.43 59.2795 32.24C58.9495 33.08 58.4695 33.8001 57.8695 34.4001C57.2695 35.0001 56.5495 35.4801 55.7095 35.8401C54.8695 36.1701 53.9995 36.3501 53.0395 36.3501C52.0795 36.3501 51.1795 36.1701 50.3695 35.8401C49.5295 35.5101 48.8395 35.0301 48.2095 34.4001C47.6095 33.8001 47.1295 33.08 46.7995 32.24C46.4695 31.4 46.2894 30.5 46.2894 29.51C46.2894 28.52 46.4695 27.59 46.7995 26.75C47.1295 25.91 47.6095 25.19 48.2095 24.59C48.8095 23.99 49.5295 23.51 50.3695 23.18C51.2095 22.85 52.0795 22.67 53.0395 22.67ZM53.0395 33.17C53.4595 33.17 53.8795 33.0801 54.2695 32.9301C54.6595 32.7801 55.0195 32.54 55.3195 32.24C55.6195 31.94 55.8595 31.55 56.0395 31.1C56.2195 30.65 56.3095 30.11 56.3095 29.51C56.3095 28.91 56.2195 28.37 56.0395 27.92C55.8595 27.47 55.6195 27.08 55.3195 26.78C55.0195 26.48 54.6595 26.24 54.2695 26.09C53.8795 25.94 53.4595 25.85 53.0395 25.85C52.6195 25.85 52.1995 25.94 51.8095 26.09C51.4195 26.24 51.0595 26.48 50.7595 26.78C50.4595 27.08 50.2195 27.47 50.0395 27.92C49.8595 28.37 49.7695 28.91 49.7695 29.51C49.7695 30.11 49.8595 30.65 50.0395 31.1C50.2195 31.55 50.4595 31.94 50.7595 32.24C51.0595 32.54 51.4195 32.7801 51.8095 32.9301C52.2295 33.0801 52.6495 33.17 53.0395 33.17ZM70.4095 35.9601C70.3795 35.8101 70.3495 35.6301 70.3195 35.3601C70.2895 35.0901 70.2895 34.8501 70.2895 34.5801C69.9295 35.1801 69.4195 35.6301 68.7595 35.9001C68.0995 36.1701 67.4095 36.3201 66.7195 36.3201C65.9395 36.3201 65.2495 36.1701 64.6495 35.9001C64.0495 35.6301 63.5395 35.2701 63.1195 34.8201C62.6995 34.3701 62.3695 33.8301 62.1595 33.2001C61.9495 32.5701 61.8295 31.91 61.8295 31.22V23.09H65.3095V30.5C65.3095 31.22 65.4895 31.8501 65.8795 32.3601C66.2395 32.8701 66.8395 33.1101 67.6795 33.1101C68.4595 33.1101 69.0595 32.87 69.4795 32.39C69.8995 31.91 70.1095 31.3101 70.1095 30.56V23.06H73.6195V33.6201C73.6195 34.1301 73.6195 34.5801 73.6495 35.0001C73.6795 35.4201 73.7095 35.7201 73.7395 35.9601H70.4095ZM84.6596 26.51C84.2996 26.45 83.9696 26.39 83.6096 26.39C83.1596 26.39 82.7396 26.45 82.3196 26.57C81.9296 26.69 81.5696 26.9 81.2696 27.17C80.9696 27.44 80.7296 27.83 80.5496 28.28C80.3696 28.73 80.2796 29.33 80.2796 30.02V35.9001H76.7995V23.03H80.1896V24.95C80.3696 24.53 80.6396 24.2 80.9396 23.93C81.2396 23.66 81.5696 23.45 81.8996 23.33C82.2296 23.18 82.5896 23.09 82.9196 23.03C83.2496 22.97 83.5796 22.94 83.8496 22.94C83.9996 22.94 84.1196 22.94 84.2696 22.94C84.3896 22.94 84.5396 22.97 84.6896 22.97L84.6596 26.51ZM92.2496 25.91C91.7996 25.91 91.3796 26 90.9896 26.15C90.5996 26.3 90.2396 26.54 89.9696 26.84C89.6696 27.14 89.4296 27.53 89.2496 27.98C89.0696 28.43 88.9796 28.94 88.9796 29.51C88.9796 30.08 89.0696 30.59 89.2496 31.04C89.4296 31.49 89.6696 31.88 89.9696 32.1801C90.2696 32.5101 90.6296 32.7201 91.0196 32.9001C91.4096 33.0501 91.8296 33.14 92.2796 33.14C92.7296 33.14 93.0896 33.0801 93.4496 32.9301C93.7796 32.8101 94.0796 32.63 94.3196 32.42C94.5596 32.21 94.7696 31.97 94.9196 31.7C95.0696 31.43 95.1896 31.19 95.2496 30.95L98.3096 31.97C98.1596 32.51 97.9496 33.0501 97.6196 33.5601C97.2896 34.0701 96.8696 34.5501 96.3896 34.9401C95.8796 35.3601 95.2796 35.6901 94.6196 35.9301C93.9296 36.1701 93.1796 36.3201 92.3096 36.3201C91.3796 36.3201 90.4796 36.1401 89.6396 35.8101C88.7996 35.4801 88.0796 35.0001 87.4796 34.3701C86.8796 33.7701 86.3996 33.0501 86.0396 32.2101C85.6796 31.37 85.4996 30.47 85.4996 29.48C85.4996 28.49 85.6796 27.56 86.0096 26.72C86.3396 25.88 86.8196 25.16 87.4196 24.56C88.0196 23.96 88.7396 23.48 89.5496 23.15C90.3596 22.82 91.2296 22.64 92.1896 22.64C93.0596 22.64 93.8396 22.76 94.5296 23.03C95.2196 23.27 95.8196 23.6 96.3296 24.02C96.8396 24.41 97.2596 24.89 97.5596 25.4C97.8596 25.91 98.0996 26.45 98.2496 26.99L95.1296 28.04C94.9796 27.5 94.6796 26.99 94.2296 26.54C93.7796 26.09 93.1196 25.91 92.2496 25.91ZM111.75 32.27C111.6 32.84 111.36 33.3501 111 33.8601C110.67 34.3701 110.25 34.7901 109.74 35.1501C109.26 35.5101 108.69 35.8101 108.03 36.0201C107.37 36.2301 106.65 36.3501 105.87 36.3501C104.97 36.3501 104.13 36.2001 103.32 35.9001C102.51 35.6001 101.82 35.1501 101.19 34.5501C100.59 33.9501 100.08 33.23 99.7496 32.39C99.3896 31.55 99.2096 30.56 99.2096 29.48C99.2096 28.46 99.3896 27.53 99.7196 26.69C100.08 25.85 100.53 25.13 101.13 24.56C101.7 23.99 102.39 23.51 103.17 23.21C103.95 22.88 104.73 22.73 105.54 22.73C107.55 22.73 109.11 23.33 110.22 24.5C111.33 25.7 111.9 27.32 111.9 29.39C111.9 29.63 111.9 29.87 111.87 30.08C111.84 30.29 111.84 30.41 111.84 30.47H102.63C102.66 30.89 102.75 31.28 102.93 31.64C103.11 32 103.35 32.3 103.65 32.57C103.95 32.84 104.28 33.0501 104.67 33.2001C105.06 33.3501 105.45 33.4101 105.9 33.4101C106.71 33.4101 107.37 33.2301 107.82 32.87C108.27 32.51 108.63 32.0301 108.84 31.4601L111.75 32.27ZM108.51 28.04C108.48 27.74 108.42 27.41 108.33 27.11C108.21 26.81 108.03 26.54 107.82 26.3C107.58 26.06 107.28 25.88 106.92 25.73C106.56 25.58 106.14 25.52 105.66 25.52C105.21 25.52 104.82 25.61 104.46 25.76C104.1 25.91 103.8 26.12 103.56 26.36C103.32 26.6 103.14 26.87 102.99 27.17C102.87 27.47 102.78 27.77 102.78 28.07L108.51 28.04ZM116.4 35.8101C116.52 36.5301 116.85 37.1001 117.36 37.5501C117.87 38.0001 118.56 38.2401 119.4 38.2401C120.51 38.2401 121.35 37.9701 121.95 37.4001C122.55 36.8301 122.85 35.9301 122.85 34.6701V33.74C122.58 34.1601 122.16 34.5501 121.56 34.8801C120.96 35.2101 120.21 35.3901 119.25 35.3901C118.38 35.3901 117.6 35.2401 116.88 34.9101C116.13 34.6101 115.5 34.1601 114.99 33.59C114.45 33.02 114.03 32.3601 113.73 31.6101C113.43 30.86 113.28 30.02 113.28 29.12C113.28 28.25 113.43 27.47 113.73 26.69C114.03 25.94 114.45 25.25 114.96 24.68C115.47 24.11 116.1 23.66 116.85 23.33C117.57 23 118.41 22.82 119.28 22.82C120.3 22.82 121.11 23 121.71 23.36C122.31 23.72 122.73 24.14 122.94 24.56V23.03H126.3V34.5201C126.3 35.4201 126.18 36.2601 125.91 37.0701C125.67 37.8801 125.25 38.6001 124.71 39.2301C124.17 39.8601 123.48 40.3401 122.61 40.7301C121.74 41.0901 120.72 41.3001 119.52 41.3001C118.62 41.3001 117.81 41.1801 117.09 40.9101C116.37 40.6701 115.74 40.3101 115.2 39.8901C114.66 39.4701 114.21 38.9601 113.88 38.3901C113.55 37.8201 113.34 37.2201 113.25 36.6201L116.4 35.8101ZM119.85 32.39C120.75 32.39 121.47 32.09 122.04 31.49C122.61 30.89 122.88 30.11 122.88 29.12C122.88 28.13 122.58 27.35 121.98 26.75C121.38 26.18 120.66 25.88 119.82 25.88C119.37 25.88 118.98 25.97 118.59 26.09C118.2 26.24 117.87 26.45 117.6 26.75C117.33 27.05 117.09 27.38 116.94 27.77C116.79 28.16 116.7 28.61 116.7 29.09C116.7 30.11 117 30.89 117.57 31.49C118.2 32.09 118.95 32.39 119.85 32.39ZM137.13 26.51C136.77 26.45 136.44 26.39 136.08 26.39C135.63 26.39 135.21 26.45 134.79 26.57C134.4 26.69 134.04 26.9 133.74 27.17C133.44 27.44 133.2 27.83 133.02 28.28C132.84 28.73 132.75 29.33 132.75 30.02V35.9001H129.27V23.03H132.66V24.95C132.84 24.53 133.11 24.2 133.41 23.93C133.71 23.66 134.04 23.45 134.37 23.3C134.7 23.15 135.06 23.06 135.39 23C135.72 22.94 136.05 22.91 136.32 22.91C136.47 22.91 136.59 22.91 136.74 22.91C136.86 22.91 137.01 22.94 137.16 22.94L137.13 26.51ZM138.36 32.45C138.36 31.88 138.45 31.37 138.66 30.92C138.87 30.47 139.14 30.08 139.47 29.75C139.83 29.42 140.22 29.15 140.7 28.97C141.15 28.79 141.66 28.64 142.2 28.55L145.38 28.07C145.74 28.01 146.01 27.92 146.13 27.74C146.28 27.56 146.34 27.38 146.34 27.14C146.34 26.69 146.16 26.3 145.8 25.97C145.44 25.64 144.9 25.46 144.15 25.46C143.37 25.46 142.8 25.67 142.38 26.09C141.96 26.51 141.75 26.99 141.69 27.56L138.6 26.9C138.66 26.39 138.81 25.88 139.08 25.37C139.35 24.86 139.71 24.41 140.16 24.02C140.61 23.63 141.18 23.3 141.84 23.03C142.5 22.79 143.28 22.64 144.15 22.64C145.17 22.64 146.04 22.76 146.73 23.06C147.45 23.33 148.02 23.69 148.47 24.14C148.92 24.59 149.25 25.1 149.43 25.7C149.64 26.3 149.73 26.9 149.73 27.56V33.8901C149.73 34.2501 149.76 34.6101 149.79 35.0001C149.82 35.3901 149.85 35.6901 149.91 35.9301H146.73C146.7 35.7501 146.67 35.5101 146.64 35.2101C146.61 34.9101 146.61 34.6401 146.61 34.4001C146.28 34.9101 145.8 35.3601 145.17 35.7501C144.54 36.1401 143.76 36.3201 142.8 36.3201C142.11 36.3201 141.51 36.2001 140.94 35.9901C140.4 35.7801 139.92 35.4801 139.53 35.1201C139.14 34.7601 138.84 34.3401 138.66 33.8901C138.48 33.4401 138.36 32.9601 138.36 32.45ZM143.52 33.7101C143.88 33.7101 144.24 33.6501 144.57 33.5601C144.9 33.4701 145.2 33.2901 145.47 33.0501C145.74 32.8101 145.95 32.51 146.1 32.12C146.25 31.76 146.34 31.28 146.34 30.68V30.11L143.43 30.56C142.98 30.62 142.59 30.8 142.29 31.04C141.99 31.28 141.84 31.67 141.84 32.1801C141.84 32.5701 141.99 32.9001 142.26 33.2001C142.56 33.5601 142.98 33.7101 143.52 33.7101ZM152.73 40.9101V23.06H156.12V24.62C156.42 24.11 156.9 23.69 157.59 23.3C158.28 22.94 159.09 22.76 160.08 22.76C161.01 22.76 161.85 22.94 162.6 23.27C163.32 23.6 163.95 24.08 164.46 24.68C164.97 25.28 165.36 26 165.63 26.81C165.9 27.62 166.02 28.52 166.02 29.48C166.02 30.47 165.87 31.37 165.6 32.1801C165.3 33.0201 164.91 33.7101 164.37 34.3401C163.83 34.9401 163.2 35.4201 162.45 35.7501C161.7 36.0801 160.86 36.2601 159.96 36.2601C159.06 36.2601 158.31 36.1101 157.68 35.8101C157.05 35.5101 156.57 35.1201 156.24 34.7001V40.9401L152.73 40.9101ZM162.6 29.51C162.6 28.37 162.3 27.47 161.67 26.84C161.04 26.21 160.29 25.91 159.42 25.91C158.97 25.91 158.55 26 158.16 26.15C157.77 26.33 157.44 26.54 157.14 26.87C156.84 27.17 156.6 27.56 156.45 27.98C156.27 28.43 156.21 28.94 156.21 29.51C156.21 30.08 156.3 30.59 156.45 31.04C156.63 31.49 156.84 31.85 157.14 32.1801C157.44 32.5101 157.77 32.7201 158.16 32.9001C158.55 33.0801 158.97 33.14 159.42 33.14C160.32 33.14 161.07 32.8101 161.67 32.1801C162.27 31.55 162.6 30.65 162.6 29.51ZM171.72 35.9601H168.24V17H171.72V24.14C172.14 23.63 172.68 23.27 173.31 23.06C173.94 22.85 174.6 22.73 175.2 22.73C176.01 22.73 176.73 22.85 177.33 23.15C177.93 23.42 178.44 23.78 178.83 24.23C179.22 24.68 179.52 25.22 179.7 25.85C179.88 26.48 180 27.14 180 27.83V35.9301H176.52V28.43C176.52 27.71 176.34 27.08 175.95 26.6C175.59 26.12 174.96 25.88 174.12 25.88C173.4 25.88 172.8 26.12 172.38 26.6C171.96 27.08 171.72 27.68 171.69 28.4L171.72 35.9601Z" fill="black"/>
<path d="M7.10958 20.2999L12.5696 40.34C12.9296 41.69 14.3396 42.47 15.6596 42.11C17.0096 41.75 17.7896 40.34 17.4296 38.99L11.9696 18.9499C11.6096 17.5999 10.1996 16.8199 8.87958 17.1799C7.55958 17.5699 6.74958 18.9799 7.10958 20.2999Z" fill="#F96216"/>
<path d="M17.2495 20.2399L3.53947 35.72C2.60946 36.77 2.69946 38.36 3.74947 39.29C4.79947 40.22 6.38947 40.13 7.31948 39.08L21.0295 23.6C21.9595 22.55 21.8695 20.9599 20.8195 20.0299C19.7695 19.0999 18.1795 19.1899 17.2495 20.2399Z" fill="#B200F8"/>
<path d="M1.73968 28.8199L21.2697 35.3C22.5897 35.75 24.0297 35.03 24.4497 33.68C24.8997 32.3599 24.1798 30.9199 22.8597 30.4999L3.29968 24.0199C1.97968 23.5699 0.539672 24.2899 0.119671 25.6399C-0.30033 26.9599 0.419672 28.3999 1.73968 28.8199Z" fill="#00B4F2"/>
</svg>

<svg xmlns="http://www.w3.org/2000/svg" width="180" height="60" fill="none" viewBox="0 0 180 60"><path fill="#000" d="M37.65 31.7q.045.765.63 1.35c.39.39.96.6 1.74.6.57 0 .99-.12 1.29-.39.27-.24.42-.54.42-.9 0-.3-.12-.54-.33-.78-.21-.21-.57-.39-1.08-.48l-1.71-.39c-1.26-.27-2.16-.75-2.76-1.44a3.7 3.7 0 0 1-.87-2.4c0-.57.12-1.11.36-1.65.24-.51.57-.96 1.02-1.35.42-.36.93-.69 1.53-.9.57-.24 1.23-.33 1.92-.33.9 0 1.68.12 2.31.39.63.24 1.14.57 1.53.96s.69.78.87 1.23c.18.42.3.81.33 1.17l-2.91.66c-.03-.18-.09-.39-.18-.6s-.21-.39-.39-.57-.39-.3-.63-.42c-.24-.09-.57-.15-.93-.15q-.675 0-1.17.36c-.33.24-.48.54-.48.93 0 .3.12.57.33.75s.51.33.84.39l1.83.39c1.26.27 2.22.75 2.88 1.47.63.72.96 1.53.96 2.49 0 .51-.09 1.05-.3 1.53-.21.51-.51.96-.93 1.35s-.93.72-1.56.96-1.35.36-2.19.36c-.99 0-1.8-.15-2.46-.42s-1.2-.63-1.62-1.02-.72-.84-.93-1.29-.33-.87-.36-1.23zm15.39-9.03c.96 0 1.86.18 2.67.51.84.33 1.53.81 2.16 1.41.6.6 1.08 1.32 1.41 2.16s.51 1.74.51 2.76c0 .99-.18 1.92-.51 2.73-.33.84-.81 1.56-1.41 2.16q-.9.9-2.16 1.44c-.84.33-1.71.51-2.67.51s-1.86-.18-2.67-.51c-.84-.33-1.53-.81-2.16-1.44-.6-.6-1.08-1.32-1.41-2.16s-.51-1.74-.51-2.73.18-1.92.51-2.76a6.27 6.27 0 0 1 3.57-3.57c.84-.33 1.71-.51 2.67-.51m0 10.5c.42 0 .84-.09 1.23-.24s.75-.39 1.05-.69.54-.69.72-1.14.27-.99.27-1.59-.09-1.14-.27-1.59-.42-.84-.72-1.14-.66-.54-1.05-.69a3.5 3.5 0 0 0-1.23-.24c-.42 0-.84.09-1.23.24s-.75.39-1.05.69-.54.69-.72 1.14-.27.99-.27 1.59.09 1.14.27 1.59.42.84.72 1.14.66.54 1.05.69c.42.15.84.24 1.23.24m17.37 2.79c-.03-.15-.06-.33-.09-.6s-.03-.51-.03-.78c-.36.6-.87 1.05-1.53 1.32s-1.35.42-2.04.42c-.78 0-1.47-.15-2.07-.42q-.9-.405-1.53-1.08c-.42-.45-.75-.99-.96-1.62a6.2 6.2 0 0 1-.33-1.98v-8.13h3.48v7.41c0 .72.18 1.35.57 1.86.36.51.96.75 1.8.75q1.17 0 1.8-.72c.42-.48.63-1.08.63-1.83v-7.5h3.51v10.56c0 .51 0 .96.03 1.38s.06.72.09.96zm14.25-9.45c-.36-.06-.69-.12-1.05-.12-.45 0-.87.06-1.29.18-.39.12-.75.33-1.05.6s-.54.66-.72 1.11-.27 1.05-.27 1.74v5.88H76.8V23.03h3.39v1.92c.18-.42.45-.75.75-1.02s.63-.48.96-.6c.33-.15.69-.24 1.02-.3s.66-.09.93-.09h.42c.12 0 .27.03.42.03zm7.59-.6c-.45 0-.87.09-1.26.24s-.75.39-1.02.69c-.3.3-.54.69-.72 1.14q-.27.675-.27 1.53t.27 1.53c.18.45.42.84.72 1.14.3.33.66.54 1.05.72.39.15.81.24 1.26.24s.81-.06 1.17-.21c.33-.12.63-.3.87-.51s.45-.45.6-.72.27-.51.33-.75l3.06 1.02c-.15.54-.36 1.08-.69 1.59s-.75.99-1.23 1.38c-.51.42-1.11.75-1.77.99-.69.24-1.44.39-2.31.39-.93 0-1.83-.18-2.67-.51a5.9 5.9 0 0 1-2.16-1.44 6.8 6.8 0 0 1-1.44-2.16c-.36-.84-.54-1.74-.54-2.73s.18-1.92.51-2.76.81-1.56 1.41-2.16 1.32-1.08 2.13-1.41a6.9 6.9 0 0 1 2.64-.51c.87 0 1.65.12 2.34.39q1.035.36 1.8.99c.51.39.93.87 1.23 1.38s.54 1.05.69 1.59l-3.12 1.05c-.15-.54-.45-1.05-.9-1.5s-1.11-.63-1.98-.63m19.5 6.36a4.8 4.8 0 0 1-.75 1.59c-.33.51-.75.93-1.26 1.29-.48.36-1.05.66-1.71.87s-1.38.33-2.16.33c-.9 0-1.74-.15-2.55-.45s-1.5-.75-2.13-1.35c-.6-.6-1.11-1.32-1.44-2.16-.36-.84-.54-1.83-.54-2.91 0-1.02.18-1.95.51-2.79.36-.84.81-1.56 1.41-2.13.57-.57 1.26-1.05 2.04-1.35.78-.33 1.56-.48 2.37-.48 2.01 0 3.57.6 4.68 1.77 1.11 1.2 1.68 2.82 1.68 4.89 0 .24 0 .48-.03.69s-.03.33-.03.39h-9.21c.03.42.12.81.3 1.17s.42.66.72.93.63.48 1.02.63.78.21 1.23.21c.81 0 1.47-.18 1.92-.54s.81-.84 1.02-1.41zm-3.24-4.23c-.03-.3-.09-.63-.18-.93-.12-.3-.3-.57-.51-.81-.24-.24-.54-.42-.9-.57s-.78-.21-1.26-.21c-.45 0-.84.09-1.2.24s-.66.36-.9.6-.42.51-.57.81c-.12.3-.21.6-.21.9zm7.89 7.77c.12.72.45 1.29.96 1.74s1.2.69 2.04.69c1.11 0 1.95-.27 2.55-.84s.9-1.47.9-2.73v-.93c-.27.42-.69.81-1.29 1.14s-1.35.51-2.31.51c-.87 0-1.65-.15-2.37-.48-.75-.3-1.38-.75-1.89-1.32q-.81-.855-1.26-1.98c-.3-.75-.45-1.59-.45-2.49 0-.87.15-1.65.45-2.43.3-.75.72-1.44 1.23-2.01q.765-.855 1.89-1.35c.72-.33 1.56-.51 2.43-.51q1.53 0 2.43.54c.6.36 1.02.78 1.23 1.2v-1.53h3.36v11.49c0 .9-.12 1.74-.39 2.55-.24.81-.66 1.53-1.2 2.16s-1.23 1.11-2.1 1.5c-.87.36-1.89.57-3.09.57-.9 0-1.71-.12-2.43-.39-.72-.24-1.35-.6-1.89-1.02s-.99-.93-1.32-1.5-.54-1.17-.63-1.77zm3.45-3.42c.9 0 1.62-.3 2.19-.9s.84-1.38.84-2.37-.3-1.77-.9-2.37c-.6-.57-1.32-.87-2.16-.87-.45 0-.84.09-1.23.21-.39.15-.72.36-.99.66s-.51.63-.66 1.02-.24.84-.24 1.32c0 1.02.3 1.8.87 2.4.63.6 1.38.9 2.28.9m17.28-5.88c-.36-.06-.69-.12-1.05-.12-.45 0-.87.06-1.29.18-.39.12-.75.33-1.05.6s-.54.66-.72 1.11-.27 1.05-.27 1.74v5.88h-3.48V23.03h3.39v1.92c.18-.42.45-.75.75-1.02s.63-.48.96-.63.69-.24 1.02-.3.66-.09.93-.09h.42c.12 0 .27.03.42.03zm1.23 5.94c0-.57.09-1.08.3-1.53q.315-.675.81-1.17c.36-.33.75-.6 1.23-.78.45-.18.96-.33 1.5-.42l3.18-.48c.36-.06.63-.15.75-.33.15-.18.21-.36.21-.6q0-.675-.54-1.17c-.36-.33-.9-.51-1.65-.51-.78 0-1.35.21-1.77.63s-.63.9-.69 1.47l-3.09-.66c.06-.51.21-1.02.48-1.53q.405-.765 1.08-1.35c.45-.39 1.02-.72 1.68-.99.66-.24 1.44-.39 2.31-.39 1.02 0 1.89.12 2.58.42.72.27 1.29.63 1.74 1.08s.78.96.96 1.56c.21.6.3 1.2.3 1.86v6.33c0 .36.03.72.06 1.11s.06.69.12.93h-3.18q-.045-.27-.09-.72c-.03-.3-.03-.57-.03-.81q-.495.765-1.44 1.35c-.63.39-1.41.57-2.37.57-.69 0-1.29-.12-1.86-.33a4.5 4.5 0 0 1-1.41-.87c-.39-.36-.69-.78-.87-1.23s-.3-.93-.3-1.44m5.16 1.26c.36 0 .72-.06 1.05-.15s.63-.27.9-.51.48-.54.63-.93c.15-.36.24-.84.24-1.44v-.57l-2.91.45c-.45.06-.84.24-1.14.48s-.45.63-.45 1.14c0 .39.15.72.42 1.02.3.36.72.51 1.26.51m9.21 7.2V23.06h3.39v1.56c.3-.51.78-.93 1.47-1.32.69-.36 1.5-.54 2.49-.54.93 0 1.77.18 2.52.51.72.33 1.35.81 1.86 1.41s.9 1.32 1.17 2.13.39 1.71.39 2.67c0 .99-.15 1.89-.42 2.7-.3.84-.69 1.53-1.23 2.16-.54.6-1.17 1.08-1.92 1.41s-1.59.51-2.49.51-1.65-.15-2.28-.45-1.11-.69-1.44-1.11v6.24zm9.87-11.4c0-1.14-.3-2.04-.93-2.67s-1.38-.93-2.25-.93c-.45 0-.87.09-1.26.24-.39.18-.72.39-1.02.72-.3.3-.54.69-.69 1.11-.18.45-.24.96-.24 1.53s.09 1.08.24 1.53c.18.45.39.81.69 1.14s.63.54 1.02.72.81.24 1.26.24c.9 0 1.65-.33 2.25-.96s.93-1.53.93-2.67m9.12 6.45h-3.48V17h3.48v7.14c.42-.51.96-.87 1.59-1.08s1.29-.33 1.89-.33c.81 0 1.53.12 2.13.42.6.27 1.11.63 1.5 1.08s.69.99.87 1.62.3 1.29.3 1.98v8.1h-3.48v-7.5c0-.72-.18-1.35-.57-1.83-.36-.48-.99-.72-1.83-.72-.72 0-1.32.24-1.74.72s-.66 1.08-.69 1.8z"/><path fill="#f96216" d="m7.11 20.3 5.46 20.04c.36 1.35 1.77 2.13 3.09 1.77 1.35-.36 2.13-1.77 1.77-3.12l-5.46-20.04c-.36-1.35-1.77-2.13-3.09-1.77-1.32.39-2.13 1.8-1.77 3.12"/><path fill="#b200f8" d="M17.25 20.24 3.54 35.72c-.93 1.05-.84 2.64.21 3.57s2.64.84 3.57-.21L21.03 23.6c.93-1.05.84-2.64-.21-3.57a2.52 2.52 0 0 0-3.57.21"/><path fill="#00b4f2" d="m1.74 28.82 19.53 6.48c1.32.45 2.76-.27 3.18-1.62.45-1.32-.27-2.76-1.59-3.18L3.3 24.02c-1.32-.45-2.76.27-3.18 1.62-.42 1.32.3 2.76 1.62 3.18"/></svg>
